img/article.svg

<svg width="77" height="23" viewBox="0 0 77 23" fill="none" xmlns="http://www.w3.org/2000/svg">
<rect width="77" height="23" rx="4" fill="white"/>
<path fill-rule="evenodd" clip-rule="evenodd" d="M13.3335 12.5007C13.3335 12.1325 13.632 11.834 14.0002 11.834H18.0002C18.3684 11.834 18.6668 12.1325 18.6668 12.5007C18.6668 12.8688 18.3684 13.1673 18.0002 13.1673H14.0002C13.632 13.1673 13.3335 12.8688 13.3335 12.5007Z" fill="#424551"/>
<path fill-rule="evenodd" clip-rule="evenodd" d="M13.3335 15.0007C13.3335 14.6325 13.632 14.334 14.0002 14.334H16.0002C16.3684 14.334 16.6668 14.6325 16.6668 15.0007C16.6668 15.3688 16.3684 15.6673 16.0002 15.6673H14.0002C13.632 15.6673 13.3335 15.3688 13.3335 15.0007Z" fill="#424551"/>
<path fill-rule="evenodd" clip-rule="evenodd" d="M14.0288 4.52925C14.1538 4.40422 14.3234 4.33398 14.5002 4.33398H19.0002C20.4729 4.33398 21.6668 5.52789 21.6668 7.00065L21.6668 16.0007C21.6668 17.4734 20.4729 18.6673 19.0002 18.6673H13.0002C11.5274 18.6673 10.3335 17.4734 10.3335 16.0006L10.3335 8.50065C10.3335 8.32384 10.4038 8.15427 10.5288 8.02925L14.0288 4.52925ZM14.3335 6.11015V8.33398H12.1097L14.3335 6.11015ZM11.6668 9.66732L11.6668 16.0006C11.6668 16.737 12.2638 17.334 13.0002 17.334H19.0002C19.7366 17.334 20.3335 16.737 20.3335 16.0007L20.3335 7.00065C20.3335 6.26427 19.7366 5.66732 19.0002 5.66732H15.6668V9.00065C15.6668 9.36884 15.3683 9.66732 15.0002 9.66732H11.6668Z" fill="#424551"/>
<path d="M34.608 13.276L33.033 9.195C32.9863 9.07367 32.9373 8.93367 32.886 8.775C32.8347 8.61167 32.7857 8.439 32.739 8.257C32.641 8.635 32.5407 8.95 32.438 9.202L30.863 13.276H34.608ZM37.436 17H36.386C36.2647 17 36.1667 16.9697 36.092 16.909C36.0173 16.8483 35.9613 16.7713 35.924 16.678L34.986 14.256H30.485L29.547 16.678C29.519 16.762 29.4653 16.8367 29.386 16.902C29.3067 16.9673 29.2087 17 29.092 17H28.042L32.053 6.969H33.425L37.436 17ZM39.6173 11.33C39.8413 10.8447 40.1166 10.4667 40.4433 10.196C40.7699 9.92067 41.1689 9.783 41.6403 9.783C41.7896 9.783 41.9319 9.79933 42.0673 9.832C42.2073 9.86467 42.3309 9.916 42.4383 9.986L42.3473 10.917C42.3193 11.0337 42.2493 11.092 42.1373 11.092C42.0719 11.092 41.9763 11.078 41.8503 11.05C41.7243 11.022 41.5819 11.008 41.4233 11.008C41.1993 11.008 40.9986 11.0407 40.8213 11.106C40.6486 11.1713 40.4923 11.2693 40.3523 11.4C40.2169 11.526 40.0933 11.6847 39.9813 11.876C39.8739 12.0627 39.7759 12.2773 39.6873 12.52V17H38.4343V9.909H39.1483C39.2836 9.909 39.3769 9.93467 39.4283 9.986C39.4796 10.0373 39.5146 10.126 39.5333 10.252L39.6173 11.33ZM50.1139 17H48.8679V10.952H45.2139V15.208C45.2139 15.5067 45.2862 15.7283 45.4309 15.873C45.5755 16.0177 45.7622 16.09 45.9909 16.09C46.1215 16.09 46.2335 16.0737 46.3269 16.041C46.4249 16.0037 46.5089 15.964 46.5789 15.922C46.6489 15.88 46.7072 15.8427 46.7539 15.81C46.8052 15.7727 46.8495 15.754 46.8869 15.754C46.9522 15.754 47.0105 15.7937 47.0619 15.873L47.4259 16.468C47.2112 16.6687 46.9522 16.8273 46.6489 16.944C46.3455 17.056 46.0329 17.112 45.7109 17.112C45.1509 17.112 44.7192 16.9557 44.4159 16.643C44.1172 16.3303 43.9679 15.88 43.9679 15.292V10.952H43.1139C43.0392 10.952 42.9762 10.931 42.9249 10.889C42.8735 10.8423 42.8479 10.7723 42.8479 10.679V10.182L44.0099 10.028L44.2969 7.844C44.3109 7.774 44.3412 7.718 44.3879 7.676C44.4392 7.62933 44.5045 7.606 44.5839 7.606H45.2139V10.049H50.1139V17ZM50.4219 7.634C50.4219 7.75533 50.3962 7.86967 50.3449 7.977C50.2982 8.07967 50.2329 8.17067 50.1489 8.25C50.0695 8.32933 49.9762 8.39233 49.8689 8.439C49.7615 8.48567 49.6472 8.509 49.5259 8.509C49.4045 8.509 49.2902 8.48567 49.1829 8.439C49.0802 8.39233 48.9892 8.32933 48.9099 8.25C48.8305 8.17067 48.7675 8.07967 48.7209 7.977C48.6742 7.86967 48.6509 7.75533 48.6509 7.634C48.6509 7.51267 48.6742 7.39833 48.7209 7.291C48.7675 7.179 48.8305 7.08333 48.9099 7.004C48.9892 6.92 49.0802 6.85467 49.1829 6.808C49.2902 6.76133 49.4045 6.738 49.5259 6.738C49.6472 6.738 49.7615 6.76133 49.8689 6.808C49.9762 6.85467 50.0695 6.92 50.1489 7.004C50.2329 7.08333 50.2982 7.179 50.3449 7.291C50.3962 7.39833 50.4219 7.51267 50.4219 7.634ZM57.0958 11.169C57.0585 11.2203 57.0212 11.26 56.9838 11.288C56.9465 11.316 56.8952 11.33 56.8298 11.33C56.7598 11.33 56.6828 11.302 56.5988 11.246C56.5148 11.1853 56.4098 11.12 56.2838 11.05C56.1625 10.98 56.0108 10.917 55.8288 10.861C55.6515 10.8003 55.4322 10.77 55.1708 10.77C54.8208 10.77 54.5128 10.833 54.2468 10.959C53.9808 11.0803 53.7568 11.2577 53.5748 11.491C53.3975 11.7243 53.2622 12.0067 53.1688 12.338C53.0802 12.6693 53.0358 13.0403 53.0358 13.451C53.0358 13.8803 53.0848 14.263 53.1828 14.599C53.2808 14.9303 53.4185 15.2103 53.5958 15.439C53.7778 15.663 53.9948 15.8357 54.2468 15.957C54.5035 16.0737 54.7905 16.132 55.1078 16.132C55.4112 16.132 55.6608 16.097 55.8568 16.027C56.0528 15.9523 56.2138 15.8707 56.3398 15.782C56.4705 15.6933 56.5778 15.614 56.6618 15.544C56.7505 15.4693 56.8368 15.432 56.9208 15.432C57.0235 15.432 57.1028 15.4717 57.1588 15.551L57.5088 16.006C57.3548 16.1973 57.1798 16.3607 56.9838 16.496C56.7878 16.6313 56.5755 16.7457 56.3468 16.839C56.1228 16.9277 55.8872 16.993 55.6398 17.035C55.3925 17.077 55.1405 17.098 54.8838 17.098C54.4405 17.098 54.0275 17.0163 53.6448 16.853C53.2668 16.6897 52.9378 16.454 52.6578 16.146C52.3778 15.8333 52.1585 15.4507 51.9998 14.998C51.8412 14.5453 51.7618 14.0297 51.7618 13.451C51.7618 12.9237 51.8342 12.436 51.9788 11.988C52.1282 11.54 52.3428 11.155 52.6228 10.833C52.9075 10.5063 53.2552 10.252 53.6658 10.07C54.0812 9.888 54.5572 9.797 55.0938 9.797C55.5932 9.797 56.0318 9.87867 56.4098 10.042C56.7925 10.2007 57.1308 10.427 57.4248 10.721L57.0958 11.169ZM60.1344 6.689V17H58.8884V6.689H60.1344ZM66.901 12.681C66.901 12.3917 66.859 12.128 66.775 11.89C66.6956 11.6473 66.5766 11.4397 66.418 11.267C66.264 11.0897 66.075 10.9543 65.851 10.861C65.627 10.763 65.3726 10.714 65.088 10.714C64.4906 10.714 64.017 10.889 63.667 11.239C63.3216 11.5843 63.107 12.065 63.023 12.681H66.901ZM67.909 16.006C67.755 16.1927 67.5706 16.356 67.356 16.496C67.1413 16.6313 66.9103 16.7433 66.663 16.832C66.4203 16.9207 66.1683 16.986 65.907 17.028C65.6456 17.0747 65.3866 17.098 65.13 17.098C64.64 17.098 64.1873 17.0163 63.772 16.853C63.3613 16.685 63.0043 16.4423 62.701 16.125C62.4023 15.803 62.169 15.4063 62.001 14.935C61.833 14.4637 61.749 13.9223 61.749 13.311C61.749 12.8163 61.8236 12.3543 61.973 11.925C62.127 11.4957 62.3463 11.1247 62.631 10.812C62.9156 10.4947 63.2633 10.2473 63.674 10.07C64.0846 9.888 64.5466 9.797 65.06 9.797C65.4846 9.797 65.8766 9.86933 66.236 10.014C66.6 10.154 66.9126 10.3593 67.174 10.63C67.44 10.896 67.6476 11.2273 67.797 11.624C67.9463 12.016 68.021 12.464 68.021 12.968C68.021 13.164 68 13.2947 67.958 13.36C67.916 13.4253 67.8366 13.458 67.72 13.458H62.981C62.995 13.906 63.0556 14.2957 63.163 14.627C63.275 14.9583 63.429 15.236 63.625 15.46C63.821 15.6793 64.0543 15.845 64.325 15.957C64.5956 16.0643 64.899 16.118 65.235 16.118C65.5476 16.118 65.816 16.083 66.04 16.013C66.2686 15.9383 66.4646 15.859 66.628 15.775C66.7913 15.691 66.9266 15.614 67.034 15.544C67.146 15.4693 67.2416 15.432 67.321 15.432C67.4236 15.432 67.503 15.4717 67.559 15.551L67.909 16.006Z" fill="#424551"/>
</svg>

<svg width="77" height="23" fill="none" xmlns="http://www.w3.org/2000/svg"><rect width="77" height="23" rx="4" fill="#fff"/><path fill-rule="evenodd" clip-rule="evenodd" d="M13.334 12.5c0-.367.298-.666.666-.666h4a.667.667 0 010 1.333h-4a.667.667 0 01-.666-.666zm0 2.5c0-.367.298-.666.666-.666h2a.667.667 0 010 1.333h-2a.667.667 0 01-.666-.666z" fill="#424551"/><path fill-rule="evenodd" clip-rule="evenodd" d="M14.029 4.53a.667.667 0 01.471-.196H19a2.667 2.667 0 012.667 2.667v9A2.667 2.667 0 0119 18.667h-6a2.667 2.667 0 01-2.666-2.666V8.5c0-.177.07-.347.195-.472l3.5-3.5zm.305 1.58v2.224H12.11l2.224-2.224zm-2.667 3.557v6.334c0 .736.597 1.333 1.333 1.333h6c.737 0 1.334-.597 1.334-1.333V7c0-.737-.597-1.334-1.334-1.334h-3.333V9a.667.667 0 01-.667.666h-3.333z" fill="#424551"/><path d="M34.608 13.276l-1.575-4.081a8.227 8.227 0 01-.294-.938 7.622 7.622 0 01-.301.945l-1.575 4.074h3.745zM37.436 17h-1.05a.452.452 0 01-.294-.091.56.56 0 01-.168-.231l-.938-2.422h-4.501l-.938 2.422a.492.492 0 01-.161.224.447.447 0 01-.294.098h-1.05l4.011-10.031h1.372L37.436 17zm2.181-5.67c.224-.485.5-.863.826-1.134.327-.275.726-.413 1.197-.413.15 0 .292.016.427.049.14.033.264.084.371.154l-.09.931c-.029.117-.099.175-.21.175-.066 0-.162-.014-.288-.042a1.976 1.976 0 00-.427-.042c-.224 0-.424.033-.602.098a1.417 1.417 0 00-.469.294 2.078 2.078 0 00-.37.476 4.138 4.138 0 00-.295.644V17h-1.253V9.909h.714c.136 0 .229.026.28.077.052.051.087.14.105.266l.084 1.078zM50.114 17h-1.246v-6.048h-3.654v4.256c0 .299.072.52.217.665a.758.758 0 00.56.217 1.02 1.02 0 00.588-.168c.07-.042.128-.08.175-.112.051-.037.096-.056.133-.056.065 0 .123.04.175.119l.364.595c-.215.2-.474.36-.777.476a2.688 2.688 0 01-.938.168c-.56 0-.992-.156-1.295-.469-.299-.313-.448-.763-.448-1.351v-4.34h-.854a.289.289 0 01-.19-.063c-.05-.047-.076-.117-.076-.21v-.497l1.162-.154.287-2.184a.297.297 0 01.09-.168.28.28 0 01.197-.07h.63v2.443h4.9V17zm.308-9.366a.866.866 0 01-.273.616.9.9 0 01-.28.189.851.851 0 01-.343.07.85.85 0 01-.616-.259.85.85 0 01-.259-.616.85.85 0 01.07-.343.876.876 0 01.189-.287c.08-.084.17-.15.273-.196a.85.85 0 01.343-.07.851.851 0 01.623.266c.084.08.15.175.196.287a.785.785 0 01.077.343zm6.674 3.535a.555.555 0 01-.112.119.251.251 0 01-.154.042.426.426 0 01-.231-.084 3.191 3.191 0 00-.315-.196 2.228 2.228 0 00-.455-.189 2.052 2.052 0 00-.658-.091c-.35 0-.658.063-.924.189-.266.121-.49.299-.672.532a2.51 2.51 0 00-.406.847 4.31 4.31 0 00-.133 1.113c0 .43.049.812.147 1.148.098.331.236.611.413.84.182.224.399.397.65.518.258.117.544.175.862.175.303 0 .553-.035.749-.105a2.21 2.21 0 00.483-.245c.13-.089.238-.168.322-.238a.407.407 0 01.259-.112c.102 0 .182.04.238.119l.35.455a2.483 2.483 0 01-.525.49c-.196.135-.409.25-.637.343a3.51 3.51 0 01-.707.196 4.52 4.52 0 01-.756.063c-.444 0-.856-.082-1.24-.245a2.845 2.845 0 01-.986-.707c-.28-.313-.5-.695-.658-1.148a4.665 4.665 0 01-.238-1.547c0-.527.072-1.015.217-1.463.15-.448.364-.833.644-1.155a2.948 2.948 0 011.043-.763c.415-.182.891-.273 1.428-.273.5 0 .938.082 1.316.245.383.159.72.385 1.015.679l-.33.448zm3.038-4.48V17h-1.246V6.689h1.246zm6.767 5.992c0-.29-.042-.553-.126-.791a1.679 1.679 0 00-.357-.623 1.507 1.507 0 00-.567-.406 1.886 1.886 0 00-.763-.147c-.597 0-1.071.175-1.421.525-.345.345-.56.826-.644 1.442h3.878zm1.008 3.325a2.42 2.42 0 01-.553.49 3.531 3.531 0 01-.693.336 4.086 4.086 0 01-.756.196 4.41 4.41 0 01-.777.07 3.68 3.68 0 01-1.358-.245 3.075 3.075 0 01-1.071-.728 3.405 3.405 0 01-.7-1.19c-.168-.471-.252-1.013-.252-1.624 0-.495.075-.957.224-1.386.154-.43.373-.8.658-1.113a2.952 2.952 0 011.043-.742c.41-.182.873-.273 1.386-.273.425 0 .817.072 1.176.217.364.14.677.345.938.616.266.266.474.597.623.994.15.392.224.84.224 1.344 0 .196-.021.327-.063.392-.042.065-.121.098-.238.098h-4.739c.014.448.075.838.182 1.169.112.331.266.609.462.833.196.22.43.385.7.497.27.107.574.161.91.161.313 0 .581-.035.805-.105a4.042 4.042 0 00.994-.469.548.548 0 01.287-.112c.103 0 .182.04.238.119l.35.455z" fill="#424551"/></svg>
